src/pos-icons/file-star.svg

<svg height="24" viewBox="0 0 24 24" width="24" xmlns="http://www.w3.org/2000/svg"><path d="m14 2h-8c-1.11 0-2 .9-2 2v16c0 1.1.9 2 2 2h12c1.1 0 2-.9 2-2v-12zm.5 16.9-2.5-1.4-2.5 1.5.7-2.8-2.2-1.9 2.9-.2 1.1-2.7 1.1 2.6 2.9.2-2.2 1.9zm-1.5-9.9v-5.5l5.5 5.5z"/></svg>

<?xml version="1.0" encoding="UTF-8"?><!DOCTYPE svg PUBLIC "-//W3C//DTD SVG 1.1//EN" "http://www.w3.org/Graphics/SVG/1.1/DTD/svg11.dtd"><svg xmlns="http://www.w3.org/2000/svg" xmlns:xlink="http://www.w3.org/1999/xlink" version="1.1" id="mdi-file-star" width="24" height="24" viewBox="0 0 24 24"><path d="M14 2H6C4.89 2 4 2.9 4 4V20C4 21.1 4.9 22 6 22H18C19.1 22 20 21.1 20 20V8L14 2M14.5 18.9L12 17.5L9.5 19L10.2 16.2L8 14.3L10.9 14.1L12 11.4L13.1 14L16 14.2L13.8 16.1L14.5 18.9M13 9V3.5L18.5 9H13Z" /></svg>
